img/icons/facebook.svg

<svg width="41" height="41" viewBox="0 0 41 41" fill="none" xmlns="http://www.w3.org/2000/svg">
<path d="M40.9999 21.1211C40.9999 10.0074 32.0451 0.998047 20.9987 0.998047C9.95238 0.998047 0.997559 10.0074 0.997559 21.1211C0.997559 31.165 8.3117 39.49 17.8735 40.9996V26.9379H12.7951V21.1211H17.8735V16.6877C17.8735 11.6444 20.8596 8.8586 25.4283 8.8586C27.6166 8.8586 29.9055 9.25163 29.9055 9.25163V14.2038H27.3834C24.8988 14.2038 24.1239 15.7549 24.1239 17.3463V21.1211H29.6711L28.7843 26.9379H24.1239V40.9996C33.6858 39.49 40.9999 31.165 40.9999 21.1211Z" fill="#1877F2"/>
</svg>

<svg width="41" height="41" fill="none" xmlns="http://www.w3.org/2000/svg"><path d="M41 21.121C41 10.007 32.045.998 20.999.998 9.952.998.998 10.008.998 21.121.998 31.165 8.312 39.49 17.873 41V26.938h-5.078V21.12h5.079v-4.433c0-5.044 2.986-7.83 7.554-7.83 2.189 0 4.477.394 4.477.394v4.952h-2.522c-2.484 0-3.26 1.55-3.26 3.142v3.775h5.548l-.887 5.817h-4.66V41C33.686 39.49 41 31.165 41 21.12z" fill="#1877F2"/></svg>
